images/16759008.svg

<?xml version="1.0" encoding="UTF-8"?>
<svg xmlns="http://www.w3.org/2000/svg" xmlns:xlink="http://www.w3.org/1999/xlink" width="300pt" height="300pt" viewBox="0 0 300 300" version="1.1">
<defs>
<g>
<symbol overflow="visible" id="glyph0-0">
<path style="stroke:none;" d="M 0.796875 2.828125 L 0.796875 -11.28125 L 8.796875 -11.28125 L 8.796875 2.828125 Z M 1.703125 1.9375 L 7.90625 1.9375 L 7.90625 -10.390625 L 1.703125 -10.390625 Z M 1.703125 1.9375 "/>
</symbol>
<symbol overflow="visible" id="glyph0-1">
<path style="stroke:none;" d="M 6.3125 -10.59375 C 5.164062 -10.59375 4.253906 -10.164062 3.578125 -9.3125 C 2.898438 -8.457031 2.5625 -7.296875 2.5625 -5.828125 C 2.5625 -4.359375 2.898438 -3.195312 3.578125 -2.34375 C 4.253906 -1.488281 5.164062 -1.0625 6.3125 -1.0625 C 7.457031 -1.0625 8.363281 -1.488281 9.03125 -2.34375 C 9.695312 -3.195312 10.03125 -4.359375 10.03125 -5.828125 C 10.03125 -7.296875 9.695312 -8.457031 9.03125 -9.3125 C 8.363281 -10.164062 7.457031 -10.59375 6.3125 -10.59375 Z M 6.3125 -11.875 C 7.945312 -11.875 9.253906 -11.328125 10.234375 -10.234375 C 11.210938 -9.140625 11.703125 -7.671875 11.703125 -5.828125 C 11.703125 -3.984375 11.210938 -2.507812 10.234375 -1.40625 C 9.253906 -0.3125 7.945312 0.234375 6.3125 0.234375 C 4.664062 0.234375 3.351562 -0.3125 2.375 -1.40625 C 1.394531 -2.507812 0.90625 -3.984375 0.90625 -5.828125 C 0.90625 -7.671875 1.394531 -9.140625 2.375 -10.234375 C 3.351562 -11.328125 4.664062 -11.875 6.3125 -11.875 Z M 6.3125 -11.875 "/>
</symbol>
<symbol overflow="visible" id="glyph0-2">
<path style="stroke:none;" d="M 1.578125 -11.671875 L 3.703125 -11.671875 L 8.875 -1.90625 L 8.875 -11.671875 L 10.40625 -11.671875 L 10.40625 0 L 8.28125 0 L 3.109375 -9.765625 L 3.109375 0 L 1.578125 0 Z M 1.578125 -11.671875 "/>
</symbol>
<symbol overflow="visible" id="glyph0-3">
<path style="stroke:none;" d="M 1.578125 -11.671875 L 3.15625 -11.671875 L 3.15625 -6.890625 L 8.890625 -6.890625 L 8.890625 -11.671875 L 10.46875 -11.671875 L 10.46875 0 L 8.890625 0 L 8.890625 -5.5625 L 3.15625 -5.5625 L 3.15625 0 L 1.578125 0 Z M 1.578125 -11.671875 "/>
</symbol>
</g>
</defs>
<g id="surface46277">
<rect x="0" y="0" width="300" height="300" style="fill:rgb(100%,100%,100%);fill-opacity:1;stroke:none;"/>
<path style="fill:none;stroke-width:1.2;stroke-linecap:butt;stroke-linejoin:miter;stroke:rgb(0%,0%,0%);stroke-opacity:1;stroke-miterlimit:10;" d="M 39.691406 206.269531 L 77.863281 203.839844 "/>
<path style="fill:none;stroke-width:1.2;stroke-linecap:butt;stroke-linejoin:miter;stroke:rgb(0%,0%,0%);stroke-opacity:1;stroke-miterlimit:10;" d="M 77.863281 203.839844 L 94.84375 169.566406 "/>
<path style="fill:none;stroke-width:1.2;stroke-linecap:butt;stroke-linejoin:miter;stroke:rgb(0%,0%,0%);stroke-opacity:1;stroke-miterlimit:10;" d="M 87.625 204.410156 L 101.210938 176.988281 "/>
<path style="fill:none;stroke-width:1.2;stroke-linecap:butt;stroke-linejoin:miter;stroke:rgb(0%,0%,0%);stroke-opacity:1;stroke-miterlimit:10;" d="M 99.054688 235.683594 L 77.863281 203.839844 "/>
<path style="fill:none;stroke-width:1.2;stroke-linecap:butt;stroke-linejoin:miter;stroke:rgb(0%,0%,0%);stroke-opacity:1;stroke-miterlimit:10;" d="M 94.84375 169.566406 L 133.019531 167.136719 "/>
<path style="fill:none;stroke-width:1.2;stroke-linecap:butt;stroke-linejoin:miter;stroke:rgb(0%,0%,0%);stroke-opacity:1;stroke-miterlimit:10;" d="M 133.019531 167.136719 L 154.207031 198.980469 "/>
<path style="fill:none;stroke-width:1.2;stroke-linecap:butt;stroke-linejoin:miter;stroke:rgb(0%,0%,0%);stroke-opacity:1;stroke-miterlimit:10;" d="M 127.644531 175.308594 L 144.597656 200.78125 "/>
<path style="fill:none;stroke-width:1.2;stroke-linecap:butt;stroke-linejoin:miter;stroke:rgb(0%,0%,0%);stroke-opacity:1;stroke-miterlimit:10;" d="M 133.019531 167.136719 L 150 132.863281 "/>
<path style="fill:none;stroke-width:1.2;stroke-linecap:butt;stroke-linejoin:miter;stroke:rgb(0%,0%,0%);stroke-opacity:1;stroke-miterlimit:10;" d="M 154.207031 198.980469 L 137.226562 233.253906 "/>
<path style="fill:none;stroke-width:1.2;stroke-linecap:butt;stroke-linejoin:miter;stroke:rgb(0%,0%,0%);stroke-opacity:1;stroke-miterlimit:10;" d="M 137.226562 233.253906 L 99.054688 235.683594 "/>
<path style="fill:none;stroke-width:1.2;stroke-linecap:butt;stroke-linejoin:miter;stroke:rgb(0%,0%,0%);stroke-opacity:1;stroke-miterlimit:10;" d="M 132.835938 224.515625 L 102.300781 226.457031 "/>
<path style="fill:none;stroke-width:1.2;stroke-linecap:butt;stroke-linejoin:miter;stroke:rgb(0%,0%,0%);stroke-opacity:1;stroke-miterlimit:10;" d="M 150 132.863281 L 188.171875 130.433594 "/>
<path style="fill:none;stroke-width:1.2;stroke-linecap:butt;stroke-linejoin:miter;stroke:rgb(0%,0%,0%);stroke-opacity:1;stroke-miterlimit:10;" d="M 150 132.863281 L 139.40625 116.941406 "/>
<path style="fill:none;stroke-width:1.2;stroke-linecap:butt;stroke-linejoin:miter;stroke:rgb(0%,0%,100%);stroke-opacity:1;stroke-miterlimit:10;" d="M 139.40625 116.941406 L 128.808594 101.019531 "/>
<path style="fill:none;stroke-width:1.2;stroke-linecap:butt;stroke-linejoin:miter;stroke:rgb(0%,0%,0%);stroke-opacity:1;stroke-miterlimit:10;" d="M 188.171875 130.433594 L 205.15625 96.160156 "/>
<path style="fill:none;stroke-width:1.2;stroke-linecap:butt;stroke-linejoin:miter;stroke:rgb(0%,0%,0%);stroke-opacity:1;stroke-miterlimit:10;" d="M 188.171875 130.433594 L 209.363281 162.277344 "/>
<path style="fill:none;stroke-width:1.2;stroke-linecap:butt;stroke-linejoin:miter;stroke:rgb(0%,0%,0%);stroke-opacity:1;stroke-miterlimit:10;" d="M 208.902344 93.667969 L 198.304688 77.746094 "/>
<path style="fill:none;stroke-width:1.2;stroke-linecap:butt;stroke-linejoin:miter;stroke:rgb(100%,0%,0%);stroke-opacity:1;stroke-miterlimit:10;" d="M 198.304688 77.746094 L 187.710938 61.824219 "/>
<path style="fill:none;stroke-width:1.2;stroke-linecap:butt;stroke-linejoin:miter;stroke:rgb(0%,0%,0%);stroke-opacity:1;stroke-miterlimit:10;" d="M 201.410156 98.652344 L 190.8125 82.730469 "/>
<path style="fill:none;stroke-width:1.2;stroke-linecap:butt;stroke-linejoin:miter;stroke:rgb(100%,0%,0%);stroke-opacity:1;stroke-miterlimit:10;" d="M 190.8125 82.730469 L 180.21875 66.808594 "/>
<path style="fill:none;stroke-width:1.2;stroke-linecap:butt;stroke-linejoin:miter;stroke:rgb(0%,0%,0%);stroke-opacity:1;stroke-miterlimit:10;" d="M 205.15625 96.160156 L 243.328125 93.730469 "/>
<path style=" stroke:none;fill-rule:nonzero;fill:rgb(100%,100%,100%);fill-opacity:1;" d="M 170.964844 54.816406 L 183.964844 54.816406 L 183.964844 73.816406 L 170.964844 73.816406 Z M 170.964844 54.816406 "/>
<g style="fill:rgb(100%,0%,0%);fill-opacity:1;">
  <use xlink:href="#glyph0-1" x="170.964844" y="69.667969"/>
</g>
<path style="fill:none;stroke-width:1.2;stroke-linecap:butt;stroke-linejoin:miter;stroke:rgb(0%,0%,0%);stroke-opacity:1;stroke-miterlimit:10;" d="M 205.332031 160.277344 L 196.839844 177.414062 "/>
<path style="fill:none;stroke-width:1.2;stroke-linecap:butt;stroke-linejoin:miter;stroke:rgb(100%,0%,0%);stroke-opacity:1;stroke-miterlimit:10;" d="M 196.839844 177.414062 L 188.347656 194.550781 "/>
<path style="fill:none;stroke-width:1.2;stroke-linecap:butt;stroke-linejoin:miter;stroke:rgb(0%,0%,0%);stroke-opacity:1;stroke-miterlimit:10;" d="M 213.394531 164.273438 L 204.90625 181.410156 "/>
<path style="fill:none;stroke-width:1.2;stroke-linecap:butt;stroke-linejoin:miter;stroke:rgb(100%,0%,0%);stroke-opacity:1;stroke-miterlimit:10;" d="M 204.90625 181.410156 L 196.414062 198.546875 "/>
<path style="fill:none;stroke-width:1.2;stroke-linecap:butt;stroke-linejoin:miter;stroke:rgb(0%,0%,0%);stroke-opacity:1;stroke-miterlimit:10;" d="M 209.363281 162.277344 L 228.449219 161.0625 "/>
<path style="fill:none;stroke-width:1.2;stroke-linecap:butt;stroke-linejoin:miter;stroke:rgb(100%,0%,0%);stroke-opacity:1;stroke-miterlimit:10;" d="M 228.449219 161.0625 L 247.535156 159.847656 "/>
<path style=" stroke:none;fill-rule:nonzero;fill:rgb(100%,100%,100%);fill-opacity:1;" d="M 179.382812 187.050781 L 192.382812 187.050781 L 192.382812 206.050781 L 179.382812 206.050781 Z M 179.382812 187.050781 "/>
<g style="fill:rgb(100%,0%,0%);fill-opacity:1;">
  <use xlink:href="#glyph0-1" x="179.382812" y="201.902344"/>
</g>
<path style="fill:none;stroke-width:1.2;stroke-linecap:butt;stroke-linejoin:miter;stroke:rgb(100%,0%,0%);stroke-opacity:1;stroke-miterlimit:10;" d="M 247.535156 159.847656 L 258.132812 175.769531 "/>
<path style="fill:none;stroke-width:1.2;stroke-linecap:butt;stroke-linejoin:miter;stroke:rgb(0%,0%,0%);stroke-opacity:1;stroke-miterlimit:10;" d="M 258.132812 175.769531 L 268.726562 191.691406 "/>
<path style=" stroke:none;fill-rule:nonzero;fill:rgb(100%,100%,100%);fill-opacity:1;" d="M 241.535156 150.347656 L 254.535156 150.347656 L 254.535156 169.347656 L 241.535156 169.347656 Z M 241.535156 150.347656 "/>
<g style="fill:rgb(100%,0%,0%);fill-opacity:1;">
  <use xlink:href="#glyph0-1" x="241.535156" y="165.199219"/>
</g>
<path style="fill:none;stroke-width:1.2;stroke-linecap:butt;stroke-linejoin:miter;stroke:rgb(0%,0%,100%);stroke-opacity:1;stroke-miterlimit:10;" d="M 128.808594 101.019531 L 109.722656 102.234375 "/>
<path style="fill:none;stroke-width:1.2;stroke-linecap:butt;stroke-linejoin:miter;stroke:rgb(0%,0%,0%);stroke-opacity:1;stroke-miterlimit:10;" d="M 109.722656 102.234375 L 90.636719 103.449219 "/>
<path style=" stroke:none;fill-rule:nonzero;fill:rgb(100%,100%,100%);fill-opacity:1;" d="M 116.808594 91.519531 L 140.808594 91.519531 L 140.808594 110.519531 L 116.808594 110.519531 Z M 116.808594 91.519531 "/>
<g style="fill:rgb(0%,0%,100%);fill-opacity:1;">
  <use xlink:href="#glyph0-2" x="116.808594" y="106.371094"/>
  <use xlink:href="#glyph0-3" x="128.777344" y="106.371094"/>
</g>
<path style="fill:none;stroke-width:1.2;stroke-linecap:butt;stroke-linejoin:miter;stroke:rgb(0%,0%,0%);stroke-opacity:1;stroke-miterlimit:10;" d="M 86.605469 101.453125 L 78.113281 118.589844 "/>
<path style="fill:none;stroke-width:1.2;stroke-linecap:butt;stroke-linejoin:miter;stroke:rgb(100%,0%,0%);stroke-opacity:1;stroke-miterlimit:10;" d="M 78.113281 118.589844 L 69.621094 135.726562 "/>
<path style="fill:none;stroke-width:1.2;stroke-linecap:butt;stroke-linejoin:miter;stroke:rgb(0%,0%,0%);stroke-opacity:1;stroke-miterlimit:10;" d="M 94.667969 105.449219 L 86.175781 122.585938 "/>
<path style="fill:none;stroke-width:1.2;stroke-linecap:butt;stroke-linejoin:miter;stroke:rgb(100%,0%,0%);stroke-opacity:1;stroke-miterlimit:10;" d="M 86.175781 122.585938 L 77.6875 139.722656 "/>
<path style="fill:none;stroke-width:1.2;stroke-linecap:butt;stroke-linejoin:miter;stroke:rgb(0%,0%,0%);stroke-opacity:1;stroke-miterlimit:10;" d="M 90.636719 103.449219 L 80.042969 87.527344 "/>
<path style="fill:none;stroke-width:1.2;stroke-linecap:butt;stroke-linejoin:miter;stroke:rgb(100%,0%,0%);stroke-opacity:1;stroke-miterlimit:10;" d="M 80.042969 87.527344 L 69.445312 71.605469 "/>
<path style=" stroke:none;fill-rule:nonzero;fill:rgb(100%,100%,100%);fill-opacity:1;" d="M 60.65625 128.222656 L 73.65625 128.222656 L 73.65625 147.222656 L 60.65625 147.222656 Z M 60.65625 128.222656 "/>
<g style="fill:rgb(100%,0%,0%);fill-opacity:1;">
  <use xlink:href="#glyph0-1" x="60.65625" y="143.074219"/>
</g>
<path style="fill:none;stroke-width:1.2;stroke-linecap:butt;stroke-linejoin:miter;stroke:rgb(100%,0%,0%);stroke-opacity:1;stroke-miterlimit:10;" d="M 69.445312 71.605469 L 50.359375 72.820312 "/>
<path style="fill:none;stroke-width:1.2;stroke-linecap:butt;stroke-linejoin:miter;stroke:rgb(0%,0%,0%);stroke-opacity:1;stroke-miterlimit:10;" d="M 50.359375 72.820312 L 31.273438 74.035156 "/>
<path style=" stroke:none;fill-rule:nonzero;fill:rgb(100%,100%,100%);fill-opacity:1;" d="M 63.445312 62.105469 L 76.445312 62.105469 L 76.445312 81.105469 L 63.445312 81.105469 Z M 63.445312 62.105469 "/>
<g style="fill:rgb(100%,0%,0%);fill-opacity:1;">
  <use xlink:href="#glyph0-1" x="63.445312" y="76.957031"/>
</g>
</g>
</svg>

<svg xmlns="http://www.w3.org/2000/svg" xmlns:xlink="http://www.w3.org/1999/xlink" width="300pt" height="300pt" viewBox="0 0 300 300"><defs><symbol overflow="visible"><path d="M.797 2.828v-14.11h8V2.83zm.906-.89h6.203v-12.33H1.703zm0 0"/></symbol><symbol overflow="visible" id="a"><path d="M6.313-10.594c-1.15 0-2.06.43-2.735 1.28-.68.857-1.015 2.017-1.015 3.486 0 1.47.335 2.633 1.015 3.484.676.856 1.586 1.28 2.735 1.28 1.144.002 2.05-.424 2.718-1.28.665-.85 1-2.015 1-3.484 0-1.47-.335-2.63-1-3.484-.667-.852-1.573-1.282-2.717-1.282zm0-1.28c1.632 0 2.94.546 3.92 1.64.978 1.093 1.47 2.562 1.47 4.406 0 1.844-.492 3.32-1.47 4.422-.98 1.093-2.288 1.64-3.92 1.64-1.65 0-2.96-.546-3.938-1.64-.98-1.102-1.47-2.578-1.47-4.422 0-1.844.49-3.313 1.47-4.406.977-1.094 2.29-1.64 3.938-1.64zm0 0"/></symbol><symbol overflow="visible" id="b"><path d="M1.578-11.672h2.125l5.172 9.766v-9.766h1.53V0H8.282L3.11-9.766V0H1.577zm0 0"/></symbol><symbol overflow="visible" id="c"><path d="M1.578-11.672h1.578v4.78H8.89v-4.78h1.58V0H8.89v-5.563H3.157V0H1.578zm0 0"/></symbol></defs><g><path fill="#fff" d="M0 0h300v300H0z"/><path d="M39.69 206.27l38.173-2.43M77.863 203.84l16.98-34.274M87.625 204.41l13.586-27.422M99.055 235.684L77.863 203.84M94.844 169.566l38.176-2.43M133.02 167.137l21.187 31.843M127.645 175.31l16.953 25.47M133.02 167.137L150 132.863M154.207 198.98l-16.98 34.274M137.227 233.254l-38.172 2.43M132.836 224.516l-30.535 1.94M150 132.863l38.172-2.43M150 132.863l-10.594-15.922" stroke-width="1.2" stroke="#000" stroke-miterlimit="10" fill="none"/><path d="M139.406 116.94l-10.597-15.92" stroke-width="1.2" stroke="#00f" stroke-miterlimit="10" fill="none"/><path d="M188.172 130.434l16.984-34.274M188.172 130.434l21.19 31.843M208.902 93.668l-10.597-15.922" stroke-width="1.2" stroke="#000" stroke-miterlimit="10" fill="none"/><path d="M198.305 77.746L187.71 61.824" stroke-width="1.2" stroke="#f00" stroke-miterlimit="10" fill="none"/><path d="M201.41 98.652L190.813 82.73" stroke-width="1.2" stroke="#000" stroke-miterlimit="10" fill="none"/><path d="M190.813 82.73L180.22 66.81" stroke-width="1.2" stroke="#f00" stroke-miterlimit="10" fill="none"/><path d="M205.156 96.16l38.172-2.43" stroke-width="1.2" stroke="#000" stroke-miterlimit="10" fill="none"/><path d="M170.965 54.816h13v19h-13zm0 0" fill="#fff"/><use xlink:href="#a" x="170.965" y="69.668" fill="#f00"/><path d="M205.332 160.277l-8.492 17.137" stroke-width="1.2" stroke="#000" stroke-miterlimit="10" fill="none"/><path d="M196.84 177.414l-8.492 17.137" stroke-width="1.2" stroke="#f00" stroke-miterlimit="10" fill="none"/><path d="M213.395 164.273l-8.49 17.137" stroke-width="1.2" stroke="#000" stroke-miterlimit="10" fill="none"/><path d="M204.906 181.41l-8.492 17.137" stroke-width="1.2" stroke="#f00" stroke-miterlimit="10" fill="none"/><path d="M209.363 162.277l19.086-1.214" stroke-width="1.2" stroke="#000" stroke-miterlimit="10" fill="none"/><path d="M228.45 161.063l19.085-1.215" stroke-width="1.2" stroke="#f00" stroke-miterlimit="10" fill="none"/><path d="M179.383 187.05h13v19h-13zm0 0" fill="#fff"/><use xlink:href="#a" x="179.383" y="201.902" fill="#f00"/><path d="M247.535 159.848l10.598 15.922" stroke-width="1.2" stroke="#f00" stroke-miterlimit="10" fill="none"/><path d="M258.133 175.77l10.594 15.92" stroke-width="1.2" stroke="#000" stroke-miterlimit="10" fill="none"/><path d="M241.535 150.348h13v19h-13zm0 0" fill="#fff"/><use xlink:href="#a" x="241.535" y="165.199" fill="#f00"/><path d="M128.81 101.02l-19.087 1.214" stroke-width="1.2" stroke="#00f" stroke-miterlimit="10" fill="none"/><path d="M109.723 102.234l-19.086 1.215" stroke-width="1.2" stroke="#000" stroke-miterlimit="10" fill="none"/><path d="M116.81 91.52h24v19h-24zm0 0" fill="#fff"/><g fill="#00f"><use xlink:href="#b" x="116.809" y="106.371"/><use xlink:href="#c" x="128.777" y="106.371"/></g><path d="M86.605 101.453l-8.492 17.137" stroke-width="1.2" stroke="#000" stroke-miterlimit="10" fill="none"/><path d="M78.113 118.59l-8.492 17.137" stroke-width="1.2" stroke="#f00" stroke-miterlimit="10" fill="none"/><path d="M94.668 105.45l-8.492 17.136" stroke-width="1.2" stroke="#000" stroke-miterlimit="10" fill="none"/><path d="M86.176 122.586l-8.49 17.137" stroke-width="1.2" stroke="#f00" stroke-miterlimit="10" fill="none"/><path d="M90.637 103.45L80.043 87.526" stroke-width="1.2" stroke="#000" stroke-miterlimit="10" fill="none"/><path d="M80.043 87.527L69.445 71.605" stroke-width="1.2" stroke="#f00" stroke-miterlimit="10" fill="none"/><path d="M60.656 128.223h13v19h-13zm0 0" fill="#fff"/><use xlink:href="#a" x="60.656" y="143.074" fill="#f00"/><path d="M69.445 71.605L50.36 72.82" stroke-width="1.2" stroke="#f00" stroke-miterlimit="10" fill="none"/><path d="M50.36 72.82l-19.087 1.215" stroke-width="1.2" stroke="#000" stroke-miterlimit="10" fill="none"/><path d="M63.445 62.105h13v19h-13zm0 0" fill="#fff"/><use xlink:href="#a" x="63.445" y="76.957" fill="#f00"/></g></svg>
